web/themes/custom/oh_my_pasta/images/icons/applestore.svg

<svg width="120" height="41" viewBox="0 0 120 41" fill="none" xmlns="http://www.w3.org/2000/svg">
<g clip-path="url(#clip0_1300_709)">
<path d="M110.47 0.333008H9.86997C9.50997 0.333008 9.14997 0.333008 8.77997 0.333008C8.46996 0.333008 8.16997 0.333008 7.85997 0.343008C7.18997 0.343008 6.51997 0.413008 5.85997 0.523008C5.19997 0.633008 4.55997 0.843008 3.95997 1.15301C3.35997 1.46301 2.81997 1.85301 2.33997 2.33301C1.85997 2.80301 1.45997 3.35301 1.15997 3.95301C0.859966 4.55301 0.649966 5.19301 0.539966 5.85301C0.419966 6.51301 0.359966 7.18301 0.359966 7.85301C0.359966 8.16301 0.349966 8.46301 0.339966 8.77301V31.883C0.339966 32.193 0.339966 32.493 0.359966 32.803C0.359966 33.473 0.429966 34.143 0.539966 34.803C0.649966 35.463 0.859966 36.113 1.16997 36.703C1.46997 37.303 1.86997 37.843 2.34997 38.313C2.81997 38.793 3.36997 39.183 3.96997 39.493C4.56997 39.793 5.20997 40.013 5.86997 40.123C6.52997 40.233 7.19997 40.293 7.86997 40.303C8.17997 40.303 8.47997 40.313 8.78997 40.313C9.15997 40.313 9.51997 40.313 9.87997 40.313H110.48C110.84 40.313 111.2 40.313 111.56 40.313C111.86 40.313 112.18 40.313 112.48 40.303C113.15 40.303 113.82 40.233 114.48 40.123C115.14 40.013 115.79 39.793 116.39 39.493C116.99 39.193 117.53 38.793 118.01 38.313C118.49 37.843 118.88 37.293 119.19 36.703C119.49 36.103 119.7 35.463 119.81 34.803C119.92 34.143 119.98 33.473 120 32.803C120 32.493 120 32.193 120 31.883C120 31.523 120 31.163 120 30.793V9.87301C120 9.50301 120 9.14301 120 8.78301C120 8.47301 120 8.17301 120 7.86301C119.99 7.19301 119.93 6.52301 119.81 5.86301C119.7 5.20301 119.49 4.56301 119.19 3.96301C118.57 2.76301 117.59 1.78301 116.39 1.16301C115.79 0.863008 115.15 0.653008 114.48 0.533008C113.82 0.423008 113.15 0.363008 112.48 0.353008C112.18 0.353008 111.86 0.343008 111.56 0.343008C111.2 0.343008 110.84 0.343008 110.48 0.343008L110.47 0.333008Z" fill="#A6A6A6"/>
<path d="M8.77996 39.463C8.47996 39.463 8.17996 39.463 7.87996 39.453C7.24996 39.453 6.62996 39.393 6.00996 39.293C5.42996 39.193 4.87996 39.013 4.34996 38.743C3.82996 38.483 3.35996 38.133 2.94996 37.723C2.53996 37.313 2.18996 36.843 1.92996 36.323C1.66996 35.803 1.47996 35.243 1.38996 34.663C1.28996 34.043 1.22996 33.413 1.21996 32.783C1.21996 32.573 1.20996 31.873 1.20996 31.873V8.77302C1.20996 8.77302 1.20996 8.08302 1.21996 7.88302C1.21996 7.25302 1.27996 6.63302 1.38996 6.01302C1.48996 5.43302 1.66996 4.87302 1.92996 4.35302C2.18996 3.83302 2.52996 3.36302 2.94996 2.95302C3.35996 2.54302 3.82996 2.19302 4.34996 1.93302C4.86996 1.67302 5.42996 1.48302 5.99996 1.39302C6.61996 1.29302 7.24996 1.23302 7.87996 1.23302H8.77996L111.55 1.22302H112.46C113.08 1.24302 113.7 1.29302 114.32 1.40302C114.9 1.50302 115.46 1.68302 115.99 1.95302C117.03 2.48302 117.87 3.33302 118.41 4.37302C118.67 4.89302 118.85 5.45302 118.95 6.02302C119.05 6.64302 119.11 7.27302 119.12 7.91302C119.12 8.19302 119.12 8.50302 119.12 8.80302C119.12 9.18302 119.12 9.53302 119.12 9.89302V30.823C119.12 31.183 119.12 31.543 119.12 31.903C119.12 32.233 119.12 32.523 119.12 32.833C119.11 33.453 119.05 34.073 118.95 34.683C118.86 35.263 118.67 35.823 118.41 36.353C118.15 36.863 117.8 37.333 117.39 37.743C116.98 38.153 116.51 38.503 115.99 38.763C115.46 39.033 114.9 39.213 114.32 39.313C113.7 39.413 113.08 39.473 112.45 39.473C112.16 39.473 111.85 39.483 111.55 39.483H110.47H8.77996V39.463Z" fill="black"/>
<path d="M25.11 20.633C25.13 18.933 26.02 17.373 27.47 16.483C26.55 15.173 25.07 14.373 23.48 14.323C21.8 14.143 20.17 15.323 19.32 15.323C18.47 15.323 17.13 14.333 15.71 14.363C13.84 14.423 12.15 15.463 11.24 17.093C9.30995 20.443 10.75 25.363 12.6 28.073C13.53 29.403 14.61 30.883 16.03 30.823C17.42 30.763 17.94 29.943 19.61 29.943C21.28 29.943 21.75 30.823 23.2 30.793C24.69 30.773 25.63 29.463 26.52 28.123C27.19 27.183 27.7 26.133 28.04 25.033C26.27 24.283 25.12 22.553 25.12 20.633H25.11Z" fill="white"/>
<path d="M22.38 12.543C23.19 11.573 23.59 10.313 23.49 9.05298C22.25 9.18298 21.1 9.77298 20.28 10.713C19.47 11.633 19.06 12.843 19.14 14.073C20.4 14.083 21.59 13.523 22.38 12.543Z" fill="white"/>
<path d="M42.6399 27.473H37.9099L36.7699 30.833H34.7699L39.2499 18.413H41.3299L45.8099 30.833H43.7699L42.6299 27.473H42.6399ZM38.3999 25.923H42.1499L40.2999 20.473H40.2499L38.3999 25.923Z" fill="white"/>
<path d="M55.5 26.303C55.5 29.113 53.99 30.923 51.72 30.923C50.55 30.983 49.44 30.373 48.87 29.343H48.83V33.823H46.97V21.773H48.77V23.283H48.8C49.39 22.263 50.5 21.643 51.68 21.683C53.98 21.683 55.49 23.503 55.49 26.303H55.5ZM53.59 26.303C53.59 24.473 52.64 23.263 51.2 23.263C49.76 23.263 48.82 24.493 48.82 26.303C48.82 28.113 49.78 29.353 51.2 29.353C52.62 29.353 53.59 28.153 53.59 26.303Z" fill="white"/>
<path d="M65.4599 26.303C65.4599 29.113 63.9499 30.923 61.6799 30.923C60.5099 30.983 59.3999 30.373 58.8299 29.343H58.7899V33.823H56.9299V21.773H58.7299V23.283H58.7599C59.3499 22.263 60.4599 21.643 61.6399 21.683C63.9399 21.683 65.4499 23.503 65.4499 26.303H65.4599ZM63.5499 26.303C63.5499 24.473 62.5999 23.263 61.1599 23.263C59.7199 23.263 58.7799 24.493 58.7799 26.303C58.7799 28.113 59.7399 29.353 61.1599 29.353C62.5799 29.353 63.5499 28.153 63.5499 26.303Z" fill="white"/>
<path d="M72.0499 27.373C72.1899 28.603 73.3799 29.413 75.0199 29.413C76.6599 29.413 77.7099 28.603 77.7099 27.493C77.7099 26.533 77.0299 25.953 75.4199 25.553L73.8099 25.163C71.5299 24.613 70.4699 23.543 70.4699 21.813C70.4699 19.673 72.3399 18.203 74.9899 18.203C77.6399 18.203 79.4099 19.673 79.4699 21.813H77.5899C77.4799 20.573 76.4499 19.823 74.9599 19.823C73.4699 19.823 72.4399 20.583 72.4399 21.683C72.4399 22.563 73.0899 23.073 74.6899 23.473L76.0599 23.813C78.6099 24.413 79.6699 25.443 79.6699 27.253C79.6699 29.573 77.8199 31.033 74.8799 31.033C72.1299 31.033 70.2699 29.613 70.1499 27.363H72.0499V27.373Z" fill="white"/>
<path d="M83.69 19.6329V21.7729H85.41V23.2429H83.69V28.2329C83.69 29.0129 84.03 29.3729 84.79 29.3729C84.99 29.3729 85.2 29.3529 85.4 29.3329V30.7929C85.06 30.8529 84.71 30.8829 84.37 30.8829C82.54 30.8829 81.82 30.1929 81.82 28.4429V23.2529H80.5V21.7829H81.82V19.6429H83.69V19.6329Z" fill="white"/>
<path d="M86.4099 26.303C86.4099 23.453 88.0899 21.663 90.6999 21.663C93.3099 21.663 94.9899 23.453 94.9899 26.303C94.9899 29.153 93.3299 30.943 90.6999 30.943C88.0699 30.943 86.4099 29.163 86.4099 26.303ZM93.1099 26.303C93.1099 24.353 92.2099 23.193 90.7099 23.193C89.2099 23.193 88.3099 24.353 88.3099 26.303C88.3099 28.253 89.1999 29.413 90.7099 29.413C92.2199 29.413 93.1099 28.273 93.1099 26.303Z" fill="white"/>
<path d="M96.5299 21.773H98.2999V23.313H98.3399C98.5899 22.323 99.4999 21.643 100.52 21.673C100.73 21.673 100.95 21.693 101.16 21.743V23.483C100.89 23.403 100.61 23.363 100.33 23.373C99.2999 23.333 98.4199 24.133 98.3799 25.173C98.3799 25.273 98.3799 25.363 98.3899 25.463V30.833H96.5299V21.783V21.773Z" fill="white"/>
<path d="M109.72 28.173C109.47 29.813 107.87 30.943 105.82 30.943C103.19 30.943 101.55 29.183 101.55 26.343C101.55 23.503 103.19 21.663 105.74 21.663C108.29 21.663 109.82 23.383 109.82 26.133V26.773H103.43V26.883C103.32 28.183 104.27 29.323 105.57 29.443C105.67 29.443 105.77 29.453 105.86 29.443C106.76 29.523 107.61 29.013 107.95 28.173H109.71H109.72ZM103.44 25.473H107.97C108.04 24.273 107.12 23.243 105.92 23.183C105.86 23.183 105.81 23.183 105.75 23.183C104.48 23.183 103.45 24.193 103.44 25.463C103.44 25.463 103.44 25.473 103.44 25.483V25.473Z" fill="white"/>
<path d="M38.17 9.06298C39.62 8.96298 40.89 10.053 40.99 11.503C41 11.673 40.99 11.853 40.98 12.023C40.98 13.933 39.95 15.023 38.17 15.023H36.01V9.05298H38.17V9.06298ZM36.94 14.183H38.06C39.09 14.243 39.98 13.453 40.04 12.423C40.04 12.293 40.04 12.163 40.02 12.033C40.16 11.003 39.44 10.053 38.41 9.91298C38.29 9.89298 38.17 9.89298 38.05 9.90298H36.93V14.183H36.94Z" fill="white"/>
<path d="M42.02 12.773C41.91 11.603 42.77 10.563 43.94 10.443C45.11 10.333 46.15 11.193 46.27 12.363C46.28 12.503 46.28 12.633 46.27 12.773C46.38 13.943 45.53 14.993 44.35 15.103C43.18 15.213 42.13 14.363 42.02 13.183C42.01 13.043 42.01 12.903 42.02 12.773ZM45.35 12.773C45.35 11.793 44.91 11.223 44.14 11.223C43.37 11.223 42.93 11.793 42.93 12.773C42.93 13.753 43.36 14.323 44.14 14.323C44.91 14.323 45.35 13.753 45.35 12.773Z" fill="white"/>
<path d="M51.91 15.033H50.99L50.06 11.713H49.99L49.06 15.033H48.15L46.91 10.533H47.81L48.62 13.973H48.69L49.62 10.533H50.47L51.4 13.973H51.47L52.27 10.533H53.16L51.92 15.033H51.91Z" fill="white"/>
<path d="M54.1901 10.523H55.0501V11.243H55.1201C55.3501 10.713 55.8901 10.393 56.4601 10.443C57.2701 10.383 57.9701 10.983 58.0301 11.793C58.0301 11.903 58.0301 12.013 58.0201 12.113V15.023H57.1301V12.333C57.1301 11.613 56.8201 11.253 56.1601 11.253C55.5901 11.223 55.1101 11.663 55.0801 12.233C55.0801 12.283 55.0801 12.343 55.0801 12.393V15.023H54.1901V10.523Z" fill="white"/>
<path d="M59.4301 8.77295H60.3201V15.0329H59.4301V8.77295Z" fill="white"/>
<path d="M61.56 12.773C61.45 11.603 62.31 10.563 63.48 10.443C64.65 10.333 65.69 11.193 65.81 12.363C65.82 12.503 65.82 12.633 65.81 12.773C65.92 13.943 65.07 14.993 63.89 15.103C62.71 15.213 61.67 14.363 61.56 13.183C61.55 13.043 61.55 12.903 61.56 12.773ZM64.89 12.773C64.89 11.793 64.45 11.223 63.68 11.223C62.91 11.223 62.47 11.793 62.47 12.773C62.47 13.753 62.9 14.323 63.68 14.323C64.45 14.323 64.89 13.753 64.89 12.773Z" fill="white"/>
<path d="M66.74 13.753C66.74 12.943 67.34 12.473 68.41 12.413L69.63 12.343V11.953C69.63 11.473 69.32 11.213 68.71 11.213C68.21 11.213 67.87 11.393 67.77 11.713H66.91C67 10.943 67.73 10.443 68.75 10.443C69.88 10.443 70.52 11.003 70.52 11.953V15.033H69.66V14.403H69.59C69.3 14.863 68.78 15.133 68.24 15.113C67.49 15.193 66.82 14.643 66.75 13.903C66.75 13.863 66.75 13.813 66.75 13.763L66.74 13.753ZM69.63 13.373V12.993L68.53 13.063C67.91 13.103 67.63 13.313 67.63 13.713C67.63 14.113 67.98 14.353 68.46 14.353C69.04 14.413 69.56 13.983 69.62 13.403C69.62 13.393 69.62 13.383 69.62 13.363L69.63 13.373Z" fill="white"/>
<path d="M71.6901 12.7729C71.6901 11.3529 72.4201 10.4529 73.5601 10.4529C74.1301 10.4229 74.6701 10.7329 74.9401 11.2429H75.0101V8.77295H75.9001V15.0329H75.0501V14.3229H74.9801C74.6901 14.8229 74.1501 15.1329 73.5701 15.1129C72.4201 15.1129 71.7001 14.2129 71.7001 12.7829L71.6901 12.7729ZM72.6101 12.7729C72.6101 13.7329 73.0601 14.3029 73.8101 14.3029C74.5601 14.3029 75.0201 13.7229 75.0201 12.7729C75.0201 11.8229 74.5501 11.2429 73.8101 11.2429C73.0701 11.2429 72.6101 11.8229 72.6101 12.7729Z" fill="white"/>
<path d="M79.57 12.773C79.46 11.603 80.32 10.563 81.49 10.443C82.66 10.323 83.7 11.193 83.82 12.363C83.83 12.503 83.83 12.633 83.82 12.773C83.93 13.943 83.08 14.993 81.9 15.103C80.73 15.213 79.68 14.363 79.57 13.183C79.56 13.043 79.56 12.903 79.57 12.773ZM82.9 12.773C82.9 11.793 82.46 11.223 81.69 11.223C80.92 11.223 80.48 11.793 80.48 12.773C80.48 13.753 80.91 14.323 81.69 14.323C82.46 14.323 82.9 13.753 82.9 12.773Z" fill="white"/>
<path d="M85.01 10.523H85.87V11.243H85.94C86.17 10.713 86.71 10.393 87.28 10.443C88.09 10.383 88.79 10.983 88.85 11.793C88.85 11.903 88.85 12.013 88.84 12.113V15.023H87.95V12.333C87.95 11.613 87.64 11.253 86.98 11.253C86.41 11.223 85.93 11.663 85.9 12.233C85.9 12.283 85.9 12.343 85.9 12.393V15.023H85.01V10.523Z" fill="white"/>
<path d="M93.86 9.40295V10.543H94.84V11.293H93.86V13.613C93.86 14.083 94.05 14.293 94.5 14.293C94.61 14.293 94.73 14.293 94.84 14.273V15.013C94.68 15.043 94.52 15.053 94.36 15.063C93.37 15.063 92.98 14.713 92.98 13.843V11.303H92.27V10.553H92.98V9.41295H93.87L93.86 9.40295Z" fill="white"/>
<path d="M96.04 8.77295H96.92V11.2529H96.99C97.23 10.7229 97.78 10.4029 98.36 10.4429C99.18 10.4029 99.88 11.0229 99.92 11.8429C99.92 11.9329 99.92 12.0329 99.91 12.1229V15.0329H99.02V12.3429C99.02 11.6229 98.69 11.2629 98.06 11.2629C97.48 11.2129 96.97 11.643 96.93 12.2229C96.93 12.2829 96.93 12.3429 96.93 12.4029V15.0329H96.04V8.77295Z" fill="white"/>
<path d="M105.1 13.813C104.85 14.663 104.03 15.213 103.15 15.113C102.02 15.143 101.08 14.253 101.05 13.123C101.05 13.013 101.05 12.903 101.07 12.793C100.92 11.653 101.72 10.613 102.85 10.463C102.95 10.453 103.05 10.443 103.14 10.443C104.39 10.443 105.15 11.303 105.15 12.713V13.023H101.97V13.073C101.91 13.733 102.4 14.303 103.06 14.363C103.1 14.363 103.14 14.363 103.17 14.363C103.6 14.413 104.03 14.203 104.24 13.813H105.1ZM101.97 12.363H104.24C104.28 11.763 103.84 11.243 103.24 11.203C103.2 11.203 103.17 11.203 103.13 11.203C102.49 11.203 101.97 11.703 101.96 12.343C101.96 12.343 101.96 12.363 101.96 12.373L101.97 12.363Z" fill="white"/>
</g>
<defs>
<clipPath id="clip0_1300_709">
<rect width="119.66" height="40" fill="white" transform="translate(0.339966 0.333008)"/>
</clipPath>
</defs>
</svg>

<svg width="120" height="41" fill="none" xmlns="http://www.w3.org/2000/svg"><g clip-path="url(#clip0_1300_709)"><path d="M110.47.333H8.78c-.31 0-.61 0-.92.01-.67 0-1.34.07-2 .18a6.474 6.474 0 00-3.52 1.81c-.48.47-.88 1.02-1.18 1.62-.3.6-.51 1.24-.62 1.9-.12.66-.18 1.33-.18 2 0 .31-.01.61-.02.92v23.11c0 .31 0 .61.02.92 0 .67.07 1.34.18 2 .11.66.32 1.31.63 1.9.3.6.7 1.14 1.18 1.61.47.48 1.02.87 1.62 1.18.6.3 1.24.52 1.9.63.66.11 1.33.17 2 .18.31 0 .61.01.92.01h102.77c.3 0 .62 0 .92-.01.67 0 1.34-.07 2-.18.66-.11 1.31-.33 1.91-.63.6-.3 1.14-.7 1.62-1.18.48-.47.87-1.02 1.18-1.61.3-.6.51-1.24.62-1.9.11-.66.17-1.33.19-2V7.863c-.01-.67-.07-1.34-.19-2a6.72 6.72 0 00-.62-1.9c-.62-1.2-1.6-2.18-2.8-2.8-.6-.3-1.24-.51-1.91-.63-.66-.11-1.33-.17-2-.18-.3 0-.62-.01-.92-.01h-1.08l-.01-.01z" fill="#A6A6A6"/><path d="M8.78 39.463c-.3 0-.6 0-.9-.01-.63 0-1.25-.06-1.87-.16a5.79 5.79 0 01-1.66-.55c-.52-.26-.99-.61-1.4-1.02-.41-.41-.76-.88-1.02-1.4a5.67 5.67 0 01-.54-1.66c-.1-.62-.16-1.25-.17-1.88 0-.21-.01-.91-.01-.91v-23.1s0-.69.01-.89c0-.63.06-1.25.17-1.87.1-.58.28-1.14.54-1.66s.6-.99 1.02-1.4c.41-.41.88-.76 1.4-1.02.52-.26 1.08-.45 1.65-.54.62-.1 1.25-.16 1.88-.16h.9l102.77-.01h.91c.62.02 1.24.07 1.86.18a5.6 5.6 0 014.09 2.97c.26.52.44 1.08.54 1.65.1.62.16 1.25.17 1.89v24.92c-.01.62-.07 1.24-.17 1.85a5.83 5.83 0 01-.54 1.67c-.26.51-.61.98-1.02 1.39-.41.41-.88.76-1.4 1.02-.53.27-1.09.45-1.67.55-.62.1-1.24.16-1.87.16-.29 0-.6.01-.9.01H8.78v-.02z" fill="#000"/><path d="M25.11 20.633c.02-1.7.91-3.26 2.36-4.15a5.076 5.076 0 00-3.99-2.16c-1.68-.18-3.31 1-4.16 1-.85 0-2.19-.99-3.61-.96-1.87.06-3.56 1.1-4.47 2.73-1.93 3.35-.49 8.27 1.36 10.98.93 1.33 2.01 2.81 3.43 2.75 1.39-.06 1.91-.88 3.58-.88 1.67 0 2.14.88 3.59.85 1.49-.02 2.43-1.33 3.32-2.67.67-.94 1.18-1.99 1.52-3.09a4.779 4.779 0 01-2.92-4.4h-.01zm-2.73-8.09a4.86 4.86 0 001.11-3.49c-1.24.13-2.39.72-3.21 1.66a4.63 4.63 0 00-1.14 3.36 4.11 4.11 0 003.24-1.53zm20.26 14.93h-4.73l-1.14 3.36h-2l4.48-12.42h2.08l4.48 12.42h-2.04l-1.14-3.36h.01zm-4.24-1.55h3.75l-1.85-5.45h-.05l-1.85 5.45zm17.1.38c0 2.81-1.51 4.62-3.78 4.62-1.17.06-2.28-.55-2.85-1.58h-.04v4.48h-1.86v-12.05h1.8v1.51h.03a3.21 3.21 0 012.88-1.6c2.3 0 3.81 1.82 3.81 4.62h.01zm-1.91 0c0-1.83-.95-3.04-2.39-3.04-1.44 0-2.38 1.23-2.38 3.04s.96 3.05 2.38 3.05 2.39-1.2 2.39-3.05zm11.87 0c0 2.81-1.51 4.62-3.78 4.62-1.17.06-2.28-.55-2.85-1.58h-.04v4.48h-1.86v-12.05h1.8v1.51h.03a3.21 3.21 0 012.88-1.6c2.3 0 3.81 1.82 3.81 4.62h.01zm-1.91 0c0-1.83-.95-3.04-2.39-3.04-1.44 0-2.38 1.23-2.38 3.04s.96 3.05 2.38 3.05 2.39-1.2 2.39-3.05zm8.5 1.07c.14 1.23 1.33 2.04 2.97 2.04 1.64 0 2.69-.81 2.69-1.92 0-.96-.68-1.54-2.29-1.94l-1.61-.39c-2.28-.55-3.34-1.62-3.34-3.35 0-2.14 1.87-3.61 4.52-3.61 2.65 0 4.42 1.47 4.48 3.61h-1.88c-.11-1.24-1.14-1.99-2.63-1.99s-2.52.76-2.52 1.86c0 .88.65 1.39 2.25 1.79l1.37.34c2.55.6 3.61 1.63 3.61 3.44 0 2.32-1.85 3.78-4.79 3.78-2.75 0-4.61-1.42-4.73-3.67h1.9v.01zm11.64-7.74v2.14h1.72v1.47h-1.72v4.99c0 .78.34 1.14 1.1 1.14.2 0 .41-.02.61-.04v1.46c-.34.06-.69.09-1.03.09-1.83 0-2.55-.69-2.55-2.44v-5.19H80.5v-1.47h1.32v-2.14h1.87v-.01zm2.72 6.67c0-2.85 1.68-4.64 4.29-4.64 2.61 0 4.29 1.79 4.29 4.64 0 2.85-1.66 4.64-4.29 4.64s-4.29-1.78-4.29-4.64zm6.7 0c0-1.95-.9-3.11-2.4-3.11s-2.4 1.16-2.4 3.11.89 3.11 2.4 3.11c1.51 0 2.4-1.14 2.4-3.11zm3.42-4.53h1.77v1.54h.04a2.18 2.18 0 012.18-1.64c.21 0 .43.02.64.07v1.74c-.27-.08-.55-.12-.83-.11a1.877 1.877 0 00-1.94 2.09v5.37h-1.86v-9.06zm13.19 6.4c-.25 1.64-1.85 2.77-3.9 2.77-2.63 0-4.27-1.76-4.27-4.6s1.64-4.68 4.19-4.68c2.55 0 4.08 1.72 4.08 4.47v.64h-6.39v.11c-.11 1.3.84 2.44 2.14 2.56.1 0 .2.01.29 0 .9.08 1.75-.43 2.09-1.27h1.77zm-6.28-2.7h4.53c.07-1.2-.85-2.23-2.05-2.29h-.17c-1.27 0-2.3 1.01-2.31 2.28v.02-.01zM38.17 9.063c1.45-.1 2.72.99 2.82 2.44.01.17 0 .35-.01.52 0 1.91-1.03 3-2.81 3h-2.16v-5.97h2.16v.01zm-1.23 5.12h1.12c1.03.06 1.92-.73 1.98-1.76 0-.13 0-.26-.02-.39.14-1.03-.58-1.98-1.61-2.12-.12-.02-.24-.02-.36-.01h-1.12v4.28h.01zm5.08-1.41c-.11-1.17.75-2.21 1.92-2.33 1.17-.11 2.21.75 2.33 1.92.01.14.01.27 0 .41.11 1.17-.74 2.22-1.92 2.33a2.133 2.133 0 01-2.33-2.33zm3.33 0c0-.98-.44-1.55-1.21-1.55s-1.21.57-1.21 1.55c0 .98.43 1.55 1.21 1.55.77 0 1.21-.57 1.21-1.55zm6.56 2.26h-.92l-.93-3.32h-.07l-.93 3.32h-.91l-1.24-4.5h.9l.81 3.44h.07l.93-3.44h.85l.93 3.44h.07l.8-3.44h.89l-1.24 4.5h-.01zm2.28-4.51h.86v.72h.07c.23-.53.77-.85 1.34-.8.81-.06 1.51.54 1.57 1.35 0 .11 0 .22-.01.32v2.91h-.89v-2.69c0-.72-.31-1.08-.97-1.08a1.03 1.03 0 00-1.08.98v2.79h-.89v-4.5zm5.24-1.75h.89v6.26h-.89v-6.26zm2.13 4c-.11-1.17.75-2.21 1.92-2.33 1.17-.11 2.21.75 2.33 1.92.01.14.01.27 0 .41.11 1.17-.74 2.22-1.92 2.33a2.127 2.127 0 01-2.33-2.33zm3.33 0c0-.98-.44-1.55-1.21-1.55s-1.21.57-1.21 1.55c0 .98.43 1.55 1.21 1.55.77 0 1.21-.57 1.21-1.55zm1.85.98c0-.81.6-1.28 1.67-1.34l1.22-.07v-.39c0-.48-.31-.74-.92-.74-.5 0-.84.18-.94.5h-.86c.09-.77.82-1.27 1.84-1.27 1.13 0 1.77.56 1.77 1.51v3.08h-.86v-.63h-.07c-.29.46-.81.73-1.35.71-.75.08-1.42-.47-1.49-1.21v-.14l-.01-.01zm2.89-.38v-.38l-1.1.07c-.62.04-.9.25-.9.65s.35.64.83.64c.58.06 1.1-.37 1.16-.95v-.04l.01.01zm2.06-.6c0-1.42.73-2.32 1.87-2.32.57-.03 1.11.28 1.38.79h.07v-2.47h.89v6.26h-.85v-.71h-.07c-.29.5-.83.81-1.41.79-1.15 0-1.87-.9-1.87-2.33l-.01-.01zm.92 0c0 .96.45 1.53 1.2 1.53s1.21-.58 1.21-1.53c0-.95-.47-1.53-1.21-1.53s-1.2.58-1.2 1.53zm6.96 0c-.11-1.17.75-2.21 1.92-2.33 1.17-.12 2.21.75 2.33 1.92.01.14.01.27 0 .41.11 1.17-.74 2.22-1.92 2.33a2.133 2.133 0 01-2.33-2.33zm3.33 0c0-.98-.44-1.55-1.21-1.55s-1.21.57-1.21 1.55c0 .98.43 1.55 1.21 1.55.77 0 1.21-.57 1.21-1.55zm2.11-2.25h.86v.72h.07c.23-.53.77-.85 1.34-.8.81-.06 1.51.54 1.57 1.35 0 .11 0 .22-.01.32v2.91h-.89v-2.69c0-.72-.31-1.08-.97-1.08a1.03 1.03 0 00-1.08.98v2.79h-.89v-4.5zm8.85-1.12v1.14h.98v.75h-.98v2.32c0 .47.19.68.64.68.11 0 .23 0 .34-.02v.74c-.16.03-.32.04-.48.05-.99 0-1.38-.35-1.38-1.22v-2.54h-.71v-.75h.71v-1.14h.89l-.01-.01zm2.18-.63h.88v2.48h.07c.24-.53.79-.85 1.37-.81.82-.04 1.52.58 1.56 1.4 0 .09 0 .19-.01.28v2.91h-.89v-2.69c0-.72-.33-1.08-.96-1.08-.58-.05-1.09.38-1.13.96v2.81h-.89v-6.26zm9.06 5.04a1.82 1.82 0 01-1.95 1.3c-1.13.03-2.07-.86-2.1-1.99 0-.11 0-.22.02-.33-.15-1.14.65-2.18 1.78-2.33.1-.01.2-.02.29-.02 1.25 0 2.01.86 2.01 2.27v.31h-3.18v.05c-.06.66.43 1.23 1.09 1.29h.11c.43.05.86-.16 1.07-.55h.86zm-3.13-1.45h2.27c.04-.6-.4-1.12-1-1.16h-.11c-.64 0-1.16.5-1.17 1.14v.03l.01-.01z" fill="#fff"/></g><defs><clipPath id="clip0_1300_709"><path fill="#fff" transform="translate(.34 .333)" d="M0 0h119.66v40H0z"/></clipPath></defs></svg>
